public/assets/external-link_green.svg

<svg width="15" height="15" viewBox="0 0 15 15" fill="none" xmlns="http://www.w3.org/2000/svg">
<g clip-path="url(#clip0)">
<path fill-rule="evenodd" clip-rule="evenodd" d="M3.125 4.21875C2.9178 4.21875 2.71909 4.30106 2.57257 4.44757C2.42606 4.59409 2.34375 4.7928 2.34375 5V11.875C2.34375 12.0822 2.42606 12.2809 2.57257 12.4274C2.71909 12.5739 2.9178 12.6562 3.125 12.6562H10C10.2072 12.6562 10.4059 12.5739 10.5524 12.4274C10.6989 12.2809 10.7812 12.0822 10.7812 11.875V8.125C10.7812 7.86612 10.9911 7.65625 11.25 7.65625C11.5089 7.65625 11.7188 7.86612 11.7188 8.125V11.875C11.7188 12.3308 11.5377 12.768 11.2153 13.0903C10.893 13.4127 10.4558 13.5938 10 13.5938H3.125C2.66916 13.5938 2.23199 13.4127 1.90966 13.0903C1.58733 12.768 1.40625 12.3308 1.40625 11.875V5C1.40625 4.54416 1.58733 4.10699 1.90966 3.78466C2.23199 3.46233 2.66916 3.28125 3.125 3.28125H6.875C7.13388 3.28125 7.34375 3.49112 7.34375 3.75C7.34375 4.00888 7.13388 4.21875 6.875 4.21875H3.125Z" fill="#65CBA0"/>
<path fill-rule="evenodd" clip-rule="evenodd" d="M8.90625 1.875C8.90625 1.61612 9.11612 1.40625 9.375 1.40625H13.125C13.3839 1.40625 13.5938 1.61612 13.5938 1.875V5.625C13.5938 5.88388 13.3839 6.09375 13.125 6.09375C12.8661 6.09375 12.6562 5.88388 12.6562 5.625V2.34375H9.375C9.11612 2.34375 8.90625 2.13388 8.90625 1.875Z" fill="#65CBA0"/>
<path fill-rule="evenodd" clip-rule="evenodd" d="M13.4565 1.54354C13.6395 1.7266 13.6395 2.0234 13.4565 2.20646L6.58149 9.08146C6.39843 9.26451 6.10163 9.26451 5.91857 9.08146C5.73552 8.8984 5.73552 8.6016 5.91857 8.41854L12.7936 1.54354C12.9766 1.36049 13.2734 1.36049 13.4565 1.54354Z" fill="#65CBA0"/>
</g>
<defs>
<clipPath id="clip0">
<rect width="15" height="15" fill="white"/>
</clipPath>
</defs>
</svg>

<svg width="15" height="15" fill="none" xmlns="http://www.w3.org/2000/svg"><g clip-path="url(#clip0)" fill-rule="evenodd" clip-rule="evenodd" fill="#65CBA0"><path d="M3.13 4.22a.78.78 0 00-.79.78v6.88a.78.78 0 00.79.78H10a.78.78 0 00.78-.79V8.13a.47.47 0 01.94 0v3.74A1.72 1.72 0 0110 13.6H3.12a1.72 1.72 0 01-1.71-1.71V5a1.72 1.72 0 011.72-1.72h3.75a.47.47 0 010 .94H3.13zM8.9 1.88c0-.26.22-.47.47-.47h3.76c.25 0 .46.2.46.47v3.75a.47.47 0 01-.93 0V2.33H9.37a.47.47 0 01-.46-.46z"/><path d="M13.46 1.54c.18.19.18.48 0 .67L6.58 9.08a.47.47 0 01-.66-.66l6.87-6.88a.47.47 0 01.67 0z"/></g><defs><clipPath id="clip0"><path fill="#fff" d="M0 0h15v15H0z"/></clipPath></defs></svg>
